X:67
T:The Bucks of Oranmore
M:4/4
L:1/8
R:reel
D:Highland Sun: Celtic Crossover
D:Nicolas Buckmelter: Mountain Eire
K:D
|:A2FA A2dB|A2FA BEE2|1 A2FA A2Bd|egfd edBd:|2 DEFG A^GAB|defd e2dB|
|:ADD2 ADBD|ADFA BEE2|1 ADD2 ADFA|defd efdB:|2 DEFG A^GAB|defd e2Bd|
|:a2fd efdf|a2fd edBd|1 a2fd efdf|gefd edBd:|2 fa~a2 bfaf|defd e2de|
|:f2df efde|f2df edBd|1 f2df efdf|gefd edBd:|2 fa~a2 bfaf|defd e2dB|
|:Adfd edfd|Adfd edBd|1 Adfd edef|gefd edBd:|2 fa~a2 bfaf|defd e2dB|
